public/assets/img/config.svg

<svg viewBox="0 0 980 980" xmlns="http://www.w3.org/2000/svg"><path d="m946 802.1 34-173.6-189.1-189.1.3-1.4-1.2.5-.1-.1v.2l-147.4 61.6-162.7-162.6 61.6-147.4h.2l-.1-.1.5-1.2-1.4.3-189.1-189.2-173.6 34 190.1 190.1h.1l-42.5 101.6-101.6 42.5v-.1l-190-190.2-34 173.6 189.1 189.1-.3 1.4 1.2-.5.1.1v-.2l146.2-61.1 163.2 163.2-61.1 146.2h-.2l.1.1-.5 1.2 1.4-.3 189.3 189.3 173.6-34-190.1-190.1h-.1l42.5-101.6 101.6-42.5v.1z" fill="#fff"/></svg>

<svg xmlns="http://www.w3.org/2000/svg" viewBox="0 0 980 980"><defs><style>.a{fill:#fff;}</style></defs><title>config</title><path class="a" d="M946,802.1l34-173.6L790.9,439.4l.3-1.4-1.2.5-.1-.1v.2L642.5,500.2,479.8,337.6l61.6-147.4h.2l-.1-.1.5-1.2-1.4.3L351.5,0,177.9,34,368,224.1h.1L325.6,325.7,224,368.2v-.1L34,177.9,0,351.5,189.1,540.6l-.3,1.4,1.2-.5.1.1v-.2l146.2-61.1L499.5,643.5,438.4,789.7h-.2l.1.1-.5,1.2,1.4-.3L628.5,980l173.6-34L612,755.9h-.1l42.5-101.6L756,611.8v.1Z"/></svg>
